!!!OTL: 1146. Trinker-Ceremonie.
!!!ARE: Europa, Mitteleuropa, Deutschland
!!!SCT: E1146
!!!TXL: @@DE
!!!YEM: Copyright 1995, estate of Helmut Schaffrath.
**kern	**text
*ICvox	*
*M2/4	*
*k[f#]	*
*G:	*
!LO:TX:a:t=Alte Volksmelodie.	!
{8d	Jch
=1	=1
8g	nehm
8g	mein
8g	Gläs-
8g	-chen
=2	=2
8f#	in
8e	die
4d}	Hand,
=3	=3
{8e	vive
8e	la
8f#	Compag-
8f#	.
=4	=4
4g	-nei-
8g}	-a!
{8d	Und
=5	=5
8g	fahr
8g	da-
8g	-mit
8g	ins
=6	=6
8f#	Un-
8e	-ter-
4d}	-land,
=7	=7
{8e	vive
8e	la
8f#	Compag-
8f#	.
=8	=8
4g	-nei-
8g	-a!
8r}	.
=9	=9
{8b	Vive
8b	la,
8b	vive
8b	la,
=10	=10
8cc	vive
8cc	la
4cc}	va!
=11	=11
{8a	vive
8a	la,
8a	vive
8a	la,
=12	=12
8dd	hop-
8dd	-ſa-
4dd}	-ſa!
=13	=13
{8b/	vive
8g	la
8a	com-
8f#	-pag-
=14	=14
(8gL	-nei-
8bJ)	.
8g}	-a.
==	==
!!!AGN: Trink -, Zech - Lied; Studenten - Lied
!!!ONB: ESAC (Essen Associative Code) Database: ERK3
!!!AMT: simple duple
!!!AIN: vox
!!!EED: Helmut Schaffrath
!!!EEV: 1.0
!!!GTL: Trink- und Zechlieder.
!!!URL-scan: https://rosdok.uni-rostock.de/mcrviewer/recordIdentifier/rosdok_ppn745177999/iview2/phys_0081.iview2?x=175.33309798665778&y=485.11630629812134&scale=0.701185927818147&rotation=0&layout=singlePageLayout
!!!ENC: Anna Maria Matuszewska
!!!EEV: 2024/12/23
*-	*-
